icons/lines/harmony--one-.svg

<svg xmlns="http://www.w3.org/2000/svg" width="24" height="24" viewBox="0 0 24 24" fill="none" stroke="currentColor" stroke-width="2" stroke-linecap="round" stroke-linejoin="round">
  <path d="M10 12.1c.6-.1 1.3-.1 2-.1s1.4 0 2-.1" />
  <path d="M2 18.3c0-1.7.8-3.3 2.3-4.2 1.3-.8 3.2-1.6 5.7-1.9v6.1A3.69 3.69 0 0 1 6.3 22h-.6c-2 0-3.7-1.7-3.7-3.7" />
  <path d="M2 5.7C2 3.7 3.7 2 5.7 2h.5C8.3 2 10 3.7 10 5.7v6.4c-5.6.7-8 3.9-8 3.9z" />
  <path d="M22 18.3a3.69 3.69 0 0 1-3.7 3.7h-.5a3.69 3.69 0 0 1-3.7-3.7v-6.4C19.6 11.2 22 8 22 8z" />
  <path d="M22 5.7c0 1.7-.8 3.3-2.3 4.2-1.3.8-3.2 1.6-5.7 1.9V5.7c0-2 1.7-3.7 3.7-3.7h.5C20.3 2 22 3.7 22 5.7" />
</svg>

<svg xmlns="http://www.w3.org/2000/svg" width="24" height="24" viewBox="0 0 24 24" fill="none" stroke="currentColor" stroke-width="2" stroke-linecap="round" stroke-linejoin="round" >
  <path d="M22 5.7C22 7.4 21.2 9 19.7 9.9C18.4 10.7 16.5 11.5 14 11.8V5.7C14 3.7 15.7 2 17.7 2H18.2C20.3 2 22 3.7 22 5.7Z" stroke-miterlimit="10"/>
  <path d="M21.9996 8V18.3C21.9996 20.4 20.2996 22 18.2996 22H17.7996C15.6996 22 14.0996 20.3 14.0996 18.3V11.9C19.5996 11.2 21.9996 8 21.9996 8Z" stroke-miterlimit="10"/>
  <path d="M2 18.3C2 16.6 2.8 15 4.3 14.1C5.6 13.3 7.5 12.5 10 12.2V18.3C10 20.4 8.3 22 6.3 22H5.7C3.7 22 2 20.3 2 18.3Z" stroke-miterlimit="10"/>
  <path d="M2 16V5.7C2 3.7 3.7 2 5.7 2H6.2C8.3 2 10 3.7 10 5.7V12.1C4.4 12.8 2 16 2 16Z" stroke-miterlimit="10"/>
  <path d="M10 12.1C10.6 12 11.3 12 12 12C12.7 12 13.4 12 14 11.9" stroke-miterlimit="10"/>
  </svg>
